X: 106
T: Arpa Buğday Daneler
C: (Anonim)
O: Turkey
F: http://compmusic.upf.edu/node/140
N: sehnaz--turku--sofyan--arpa_bugday--orta_anadolu
N: makam= sehnaz
N: form= turku
N: usul= sofyan = 4/4
M: 4/4
L: 1/16
K: C _7/8B ^1/4f ^c ^g
Q: 1/4=78
%%MIDI tuningsystem comma53
a3/2g/.a2 a3/2g/.a2 g3/2b/ag =fed2  | \
w:  ARANAĞME  | 
z2.e.^3/4f .=g.fgf gaag =fed2  | 
w:   | 
z2=fe f3/2e/fa =g3/2f/ed c2_BA  | \
w:   | 
A2A_B cde=f gabg aecA  | 
w:   | 
a3/2g/.a2 a3/2g/.a2 g3/2b/ag =fed2  | \
w:  ARANAĞME  | 
z2.e.^3/4f .=g.fgf gaag =fed2  | 
w:   | 
z2=fe f3/2e/fa =g3/2f/ed c2_BA  | \
w:   | 
A2A_B cde=f edcB AB/c/d/e/f/g/  | 
w:   | 
a2ga a2a2 b2ag a4  | z2ga a2ba a2{b}ag =f2{g}fe  | 
w:  *  Ar pa  buğ day  da ne *  ler    |  Yı kıl sın  mey *  ha *  *  *  ne  | 
e2a4g=f edcB AB/c/d/e/f/g/  | a2ga a2a2 b2ag a4  | 
w:  ler   SAZ  |  *  Ar pa  buğ day  da ne *  ler    | 
z2ga a2ba a2{b}ag =f2{g}fe  | e4 e3a =g=fed e2f^g  | 
w:  Yı kıl sın  mey *  ha *  *  *  ne  |  ler   SAZ  | 
a2ga aab2 a2ag =f{g}ed2  | z12  | e2e ^3/4f=g2 fga2z2  | 
w:  *  Ter zi  e *  lin  kı *  *  rıl  |  |  sın_ a *  man  a *  man    | 
z16  | e2=fe d2d2 e3/2f/e{f}d c2cd  | \
w:  |  Dar  ge *  li yor  *  *  *  *  *  düğ  | 
c_B2A A2AB cde=f gabg  | 
w:  me *  *  ler   SAZ  | 
a2ga aab2 a2ag =f{g}ed2  | z12  | e2e ^3/4f=g2 fga2z2  | 
w:  *  Ter zi  e *  lin  kı *  *  rıl  |  |  sın_ a *  man  a *  man    | 
z16  | e2=fe d2d2 e3/2f/e{f}d c2cd  | \
w:  |  Dar  ge *  li yor  *  *  *  *  *  düğ  | 
z0 c  | _B2  | A  | A2  | A  | _B  | c  | 
w:  me  |   |   |  ler    |  SAZ  |   |   | 
d  | e  | =f  | e  | d  | c  | _B  | A  | _B/  | c/  | d/  | e/  | =f/  | g/  | z16  | \
w:   |   |   |   |   |   |   |   |   |   |   |   |   |   |  | 
a3/2g/.a2 a3/2g/.a2 g3/2b/ag =fed2  | 
w:  ARANAĞME  | 
z2.e.^3/4f .=g.fgf gaag =fed2  | z2=fe f3/2e/fa =g3/2f/ed c2_BA  | 
w:   |   | 
A2A_B cde=f gabg aecA  | a3/2g/.a2 a3/2g/.a2 g3/2b/ag =fed2  | 
w:   |  ARANAĞME  | 
z2.e.^3/4f .=g.fgf gaag =fed2  | z2=fe f3/2e/fa =g3/2f/ed c2_BA  | 
w:   |   | 
A2A_B cde=f edcB AB/c/d/e/f/g/  | \
w:   | 
a2ga a2a2 b2ag a4  | 
w:  *  Ar pa  buğ day  da ne *  ler    | 
z2ga a2ba a2{b}ag =f2{g}fe  | e2a4g=f edcB AB/c/d/e/f/g/  | 
w:  Yı kıl sın  mey *  ha *  *  *  ne  |  ler   SAZ  | 
a2ga a2a2 b2ag a4  | z2ga a2ba a2{b}ag =f2{g}fe  | 
w:  *  Ar pa  buğ day  da ne *  ler    |  Yı kıl sın  mey *  ha *  *  *  ne  | 
e4 e3a =g=fed e2f^g  | a2ga aab2 a2ag =f{g}ed2  | 
w:  ler   SAZ  |  *  Ter zi  e *  lin  kı *  *  rıl  | 
z12  | e2e ^3/4f=g2 fga2z2  | z16  | e2=fe d2d2 e3/2f/e{f}d c2cd  | 
w:  |  sın_ a *  man  a *  man    |  |  Dar  ge *  li yor  *  *  *  *  *  düğ  | 
c_B2A A2AB cde=f gabg  | a2ga aab2 a2ag =f{g}ed2  | 
w:  me *  *  ler   SAZ  |  *  Ter zi  e *  lin  kı *  *  rıl  | 
z12  | e2e ^3/4f=g2 fga2z2  | z16  | e2=fe d2d2 e3/2f/e{f}d c2cd  | 
w:  |  sın_ a *  man  a *  man    |  |  Dar  ge *  li yor  *  *  *  *  *  düğ  | 
z0 c  | _B2  | A  | A2  | |


